app/dist/common/images/ensysce-biosciences.svg

<svg height="18" viewBox="0 0 18 18" width="18" xmlns="http://www.w3.org/2000/svg"><path d="m0 0h18v18h-18z" fill="#f0f3fa"/><path d="m5 14v-.35l1.43-.27v-8.58l-1.43-.26v-.54h6.75a168.61 168.61 0 0 0 .2 2.14h-.42c-.08-.35-.22-.85-.43-1.4h-3.1v3.56h2.63l.28-1.04h.42c0 .5-.03 1-.03 1.49 0 .47.03.95.03 1.43h-.42l-.28-1.18h-2.63v4.31h3.87c.34-.72.59-1.29.69-1.61h.44c-.22.75-.42 1.53-.58 2.3z" fill="#2e4a6a"/></svg>

<!-- by TradingView --><svg xmlns="http://www.w3.org/2000/svg" width="18" height="18" viewBox="0 0 18 18"><path fill="#F0F3FA" d="M0 0h18v18H0z"/><path d="M5 14v-.35l1.43-.27V4.8L5 4.54V4h6.75a168.61 168.61 0 0 0 .2 2.14h-.42c-.08-.35-.22-.85-.43-1.4H8V8.3h2.63l.28-1.04h.42c0 .5-.03 1-.03 1.49 0 .47.03.95.03 1.43h-.42L10.63 9H8v4.31h3.87c.34-.72.59-1.29.69-1.61H13c-.22.75-.42 1.53-.58 2.3H5z" fill="#2E4A6A"/></svg>
